(FOOR AND X)
(T1  D=1.5 CR=0. TAPER=118DEG - ZMIN=-4.001 - DRILL)
(T2  D=2. CR=0. - ZMIN=-3.1 - FLAT END MILL)
G90 G94 G91.1 G40 G49 G17
G21

(DRILL1)
M1
M8
G0 X19.181 Y9.645
G43 Z15. H1
Z5.
G98 G73 X19.181 Y9.645 Z-3.551 R5. Q0.375 F300.
X25.881
G80
Z15.

(DRILL2)
M1
M8
G0 X148.527 Y187.245
Z15.
Z5.
G73 X148.527 Y187.245 Z-4.001 R5. Q0.75 F300.
X124.508 Y199.232
X97.008 Y224.142
G80
X10.401 Y223.925 Z5.
G73 X10.401 Y223.925 Z-2.451 R5. Q0.75 F300.
G80
X40.886 Y228.004 Z5.
G73 X40.886 Y228.004 Z-4.001 R3.45 Q0.75 F300.
X56.886
Y213.004
X40.886
G80
X25.901 Y208.425 Z5.
G73 X25.901 Y208.425 Z-4.001 R5. Q0.75 F300.
G80
X41.401 Y192.925 Z5.
G73 X41.401 Y192.925 Z-2.451 R5. Q0.75 F300.
X10.401
G80
X10.646 Y180.765 Z5.
G73 X10.646 Y180.765 Z-4.001 R5. Q0.75 F300.
Y100.765
Y20.765
X26.446 Y23.318
G80
X40.886 Y19. Z5.
G73 X40.886 Y19. Z-4.001 R3.45 Q0.75 F300.
X56.886
Y4.
X40.886
G80
X97.008 Y26.742 Z5.
G73 X97.008 Y26.742 Z-4.001 R5. Q0.75 F300.
X120.462 Y51.38
X148.527 Y63.245
G80
Z15.

(2D CONTOUR1)
M1
M5
M9
M1
T2 M6
S10500 M3
M8
G0 X32.701 Y208.226
G43 Z15. H2
Z5.
G1 Z2. F314.
Z-0.8
X32.708 Z-0.852
X32.728 Z-0.9
X32.759 Z-0.941
X32.801 Z-0.973
X32.849 Z-0.993
X32.901 Z-1.
X33.101
G3 X33.301 Y208.426 R0.2
X18.501 Y208.424 R7.4 F628.
X33.301 Y208.426 R7.4
X33.101 Y208.626 R0.2 F1256.
G1 X32.901
X32.849 Z-0.993
X32.801 Z-0.973
X32.759 Z-0.941
X32.727 Z-0.9
X32.707 Z-0.852
X32.701 Z-0.8
Y208.226
Z-1.8 F314.
X32.708 Z-1.852
X32.728 Z-1.9
X32.759 Z-1.941
X32.801 Z-1.973
X32.849 Z-1.993
X32.901 Z-2.
X33.101
G3 X33.301 Y208.426 R0.2
X18.501 Y208.424 R7.4 F628.
X33.301 Y208.426 R7.4
X33.101 Y208.626 R0.2 F1256.
G1 X32.901
X32.849 Z-1.993
X32.801 Z-1.973
X32.759 Z-1.941
X32.727 Z-1.9
X32.707 Z-1.852
X32.701 Z-1.8
Y208.226
Z-2.8 F314.
X32.708 Z-2.852
X32.728 Z-2.9
X32.759 Z-2.941
X32.801 Z-2.973
X32.849 Z-2.993
X32.901 Z-3.
X33.101
G3 X33.301 Y208.426 R0.2
X18.501 Y208.424 R7.4 F628.
X33.301 Y208.426 R7.4
X33.101 Y208.626 R0.2 F1256.
G1 X32.901
X32.849 Z-2.993
X32.801 Z-2.973
X32.759 Z-2.941
X32.727 Z-2.9
X32.707 Z-2.852
X32.701 Z-2.8
G0 Z5.
X68.645 Y226.491
G1 Z2. F314.
Z-0.8
G18 G2 X68.845 Z-1. R0.2
G1 X69.045
G17 G3 X69.245 Y226.691 R0.2
G1 Y227.066 F628.
Y227.466 F157.
X68.095 F628.
X67.695 F157.
Y212.907 F628.
Y212.507 F157.
X68.845 F628.
X69.245 F157.
Y226.691 F628.
G3 X69.045 Y226.891 R0.2 F1256.
G1 X68.845
G18 G3 X68.645 Z-0.8 R0.2
G1 Y226.491
Z-1.8 F314.
G2 X68.845 Z-2. R0.2
G1 X69.045
G17 G3 X69.245 Y226.691 R0.2
G1 Y227.066 F628.
Y227.466 F157.
X68.095 F628.
X67.695 F157.
Y212.907 F628.
Y212.507 F157.
X68.845 F628.
X69.245 F157.
Y226.691 F628.
G3 X69.045 Y226.891 R0.2 F1256.
G1 X68.845
G18 G3 X68.645 Z-1.8 R0.2
G1 Y226.491
Z-2.8 F314.
G2 X68.845 Z-3. R0.2
G1 X69.045
G17 G3 X69.245 Y226.691 R0.2
G1 Y227.066 F628.
Y227.466 F157.
X68.095 F628.
X67.695 F157.
Y212.907 F628.
Y212.507 F157.
X68.845 F628.
X69.245 F157.
Y226.691 F628.
G3 X69.045 Y226.891 R0.2 F1256.
G1 X68.845
G18 G3 X68.645 Z-2.8 R0.2
G0 Z5.
Y5.113
G1 Z2. F314.
Z-0.8
G2 X68.845 Z-1. R0.2
G1 X69.045
G17 G3 X69.245 Y5.313 R0.2
G1 Y19.097 F628.
Y19.497 F157.
X68.095 F628.
X67.695 F157.
Y4.938 F628.
Y4.538 F157.
X68.845 F628.
X69.245 F157.
Y5.313 F628.
G3 X69.045 Y5.513 R0.2 F1256.
G1 X68.845
G18 G3 X68.645 Z-0.8 R0.2
G1 Y5.113
Z-1.8 F314.
G2 X68.845 Z-2. R0.2
G1 X69.045
G17 G3 X69.245 Y5.313 R0.2
G1 Y19.097 F628.
Y19.497 F157.
X68.095 F628.
X67.695 F157.
Y4.938 F628.
Y4.538 F157.
X68.845 F628.
X69.245 F157.
Y5.313 F628.
G3 X69.045 Y5.513 R0.2 F1256.
G1 X68.845
G18 G3 X68.645 Z-1.8 R0.2
G1 Y5.113
Z-2.8 F314.
G2 X68.845 Z-3. R0.2
G1 X69.045
G17 G3 X69.245 Y5.313 R0.2
G1 Y19.097 F628.
Y19.497 F157.
X68.095 F628.
X67.695 F157.
Y4.938 F628.
Y4.538 F157.
X68.845 F628.
X69.245 F157.
Y5.313 F628.
G3 X69.045 Y5.513 R0.2 F1256.
G1 X68.845
G18 G3 X68.645 Z-2.8 R0.2
G0 Z5.
X73.911 Y3.7
G1 Z2. F314.
Z-0.8
G3 X73.711 Z-1. R0.2
G1 X73.511
G17 G3 X73.311 Y3.5 R0.2
G2 X70.311 Y0.5 R3. F628.
G1 X61.861
G3 X59.65 Y-0.167 R4.
G2 X54.122 R5.
G3 X51.911 Y0.5 R4.
G1 X45.861
G3 X43.65 Y-0.167 R4.
G2 X38.122 R5.
G3 X35.911 Y0.5 R4.
G1 X30.936
G2 X27.936 Y3.5 R3.
G1 Y3.996
G3 X26.936 Y4.996 R1.
G1 X17.116
G2 X15.116 Y6.996 R2.
G1 Y14.765
G3 X14.116 Y15.765 R1.
G1 X2.646
G2 X-0.354 Y18.765 R3.
G1 Y224.475
G2 X2.646 Y227.475 R3.
G1 X2.78
G3 X5.608 Y228.647 R4.
G1 X5.679 Y228.718
G2 X9.922 Y230.475 R6.
G1 X25.898
G3 X28.328 Y231.298 R4.
G2 X28.936 Y231.504 R1.
G1 X34.816
G3 X37.493 Y232.53 R4.
G2 X44.183 R5.
G3 X46.858 Y231.504 R4.
G1 X51.911
G3 X54.122 Y232.17 R4.
G2 X59.65 R5.
G3 X61.861 Y231.504 R4.
G1 X70.311
G2 X73.311 Y228.504 R3.
G1 Y212.504
G2 X70.311 Y209.504 R3.
G1 X61.861
G3 X59.65 Y208.837 R4.
G2 X54.122 R5.001
G3 X51.931 Y209.504 R4.
X47.951 Y205.504 R4.
G1 Y191.204
G2 X47.072 Y189.083 R3.
G1 X45.244 Y187.254
G2 X43.122 Y186.375 R3.
G1 X38.231
G3 X34.244 Y182.062 R4.
G1 X46.03 Y31.86
G2 X46.335 Y26.978 R13.486
G3 X50.307 Y22.5 R4.
G1 X51.911
G3 X54.122 Y23.167 R4.
G2 X59.65 R5.
G3 X61.861 Y22.5 R4.
G1 X70.311
G2 X73.311 Y19.5 R3.
G1 Y3.5
G3 X73.511 Y3.3 R0.2 F1256.
G1 X73.711
G18 G2 X73.911 Z-0.8 R0.2
G1 Y3.7
Z-1.8 F314.
G3 X73.711 Z-2. R0.2
G1 X73.511
G17 G3 X73.311 Y3.5 R0.2
G2 X70.311 Y0.5 R3. F628.
G1 X61.861
G3 X59.65 Y-0.167 R4.
G2 X54.122 R5.
G3 X51.911 Y0.5 R4.
G1 X45.861
G3 X43.65 Y-0.167 R4.
G2 X38.122 R5.
G3 X35.911 Y0.5 R4.
G1 X30.936
G2 X27.936 Y3.5 R3.
G1 Y3.996
G3 X26.936 Y4.996 R1.
G1 X17.116
G2 X15.116 Y6.996 R2.
G1 Y14.765
G3 X14.116 Y15.765 R1.
G1 X2.646
G2 X-0.354 Y18.765 R3.
G1 Y224.475
G2 X2.646 Y227.475 R3.
G1 X2.78
G3 X5.608 Y228.647 R4.
G1 X5.679 Y228.718
G2 X9.922 Y230.475 R6.
G1 X25.898
G3 X28.328 Y231.298 R4.
G2 X28.936 Y231.504 R1.
G1 X34.816
G3 X37.493 Y232.53 R4.
G2 X44.183 R5.
G3 X46.858 Y231.504 R4.
G1 X51.911
G3 X54.122 Y232.17 R4.
G2 X59.65 R5.
G3 X61.861 Y231.504 R4.
G1 X70.311
G2 X73.311 Y228.504 R3.
G1 Y212.504
G2 X70.311 Y209.504 R3.
G1 X61.861
G3 X59.65 Y208.837 R4.
G2 X54.122 R5.001
G3 X51.931 Y209.504 R4.
X47.951 Y205.504 R4.
G1 Y191.204
G2 X47.072 Y189.083 R3.
G1 X45.244 Y187.254
G2 X43.122 Y186.375 R3.
G1 X38.231
G3 X34.244 Y182.062 R4.
G1 X46.03 Y31.86
G2 X46.335 Y26.978 R13.486
G3 X50.307 Y22.5 R4.
G1 X51.911
G3 X54.122 Y23.167 R4.
G2 X59.65 R5.
G3 X61.861 Y22.5 R4.
G1 X70.311
G2 X73.311 Y19.5 R3.
G1 Y3.5
G3 X73.511 Y3.3 R0.2 F1256.
G1 X73.711
G18 G2 X73.911 Z-1.8 R0.2
G1 Y3.7
Z-2.8 F314.
G3 X73.711 Z-3. R0.2
G1 X73.511
G17 G3 X73.311 Y3.5 R0.2
G2 X70.311 Y0.5 R3. F628.
G1 X61.861
G3 X59.65 Y-0.167 R4.
G2 X54.122 R5.
G3 X51.911 Y0.5 R4.
G1 X45.861
G3 X43.65 Y-0.167 R4.
G2 X38.122 R5.
G3 X35.911 Y0.5 R4.
G1 X30.936
G2 X27.936 Y3.5 R3.
G1 Y3.996
G3 X26.936 Y4.996 R1.
G1 X17.116
G2 X15.116 Y6.996 R2.
G1 Y14.765
G3 X14.116 Y15.765 R1.
G1 X2.646
G2 X-0.354 Y18.765 R3.
G1 Y224.475
G2 X2.646 Y227.475 R3.
G1 X2.78
G3 X5.608 Y228.647 R4.
G1 X5.679 Y228.718
G2 X9.922 Y230.475 R6.
G1 X25.898
G3 X28.328 Y231.298 R4.
G2 X28.936 Y231.504 R1.
G1 X34.816
G3 X37.493 Y232.53 R4.
G2 X44.183 R5.
G3 X46.858 Y231.504 R4.
G1 X51.911
G3 X54.122 Y232.17 R4.
G2 X59.65 R5.
G3 X61.861 Y231.504 R4.
G1 X70.311
G2 X73.311 Y228.504 R3.
G1 Y212.504
G2 X70.311 Y209.504 R3.
G1 X61.861
G3 X59.65 Y208.837 R4.
G2 X54.122 R5.001
G3 X51.931 Y209.504 R4.
X47.951 Y205.504 R4.
G1 Y191.204
G2 X47.072 Y189.083 R3.
G1 X45.244 Y187.254
G2 X43.122 Y186.375 R3.
G1 X38.231
G3 X34.244 Y182.062 R4.
G1 X46.03 Y31.86
G2 X46.335 Y26.978 R13.486
G3 X50.307 Y22.5 R4.
G1 X51.911
G3 X54.122 Y23.167 R4.
G2 X59.65 R5.
G3 X61.861 Y22.5 R4.
G1 X70.311
G2 X73.311 Y19.5 R3.
G1 Y3.5
G3 X73.511 Y3.3 R0.2 F1256.
G1 X73.711
G18 G2 X73.911 Z-2.8 R0.2
G0 Z5.
X150.327 Y187.045
G1 Z2. F314.
Z-0.8
G2 X150.527 Z-1. R0.2
G1 X150.727
G17 G3 X150.927 Y187.245 R0.2
X146.127 R2.4 F628.
X150.927 R2.4
X150.727 Y187.445 R0.2 F1256.
G1 X150.527
G18 G3 X150.327 Z-0.8 R0.2
G1 Y187.045
Z-1.8 F314.
G2 X150.527 Z-2. R0.2
G1 X150.727
G17 G3 X150.927 Y187.245 R0.2
X146.127 R2.4 F628.
X150.927 R2.4
X150.727 Y187.445 R0.2 F1256.
G1 X150.527
G18 G3 X150.327 Z-1.8 R0.2
G1 Y187.045
Z-2.8 F314.
G2 X150.527 Z-3. R0.2
G1 X150.727
G17 G3 X150.927 Y187.245 R0.2
X146.127 R2.4 F628.
X150.927 R2.4
X150.727 Y187.445 R0.2 F1256.
G1 X150.527
G18 G3 X150.327 Z-2.8 R0.2
G0 Z5.
X149.847 Y62.005
G1 Z2. F314.
Z-0.8
X149.852 Y62.001 Z-0.852
X149.868 Y61.989 Z-0.9
X149.894 Y61.97 Z-0.941
X149.927 Y61.945 Z-0.973
X149.966 Y61.916 Z-0.993
X150.007 Y61.885 Z-1.
X150.167 Y61.765
G17 G3 X150.447 Y61.805 R0.2
X146.607 Y64.685 R2.4 F628.
X150.447 Y61.805 R2.4
X150.407 Y62.085 R0.2 F1256.
G1 X150.247 Y62.205
X150.206 Y62.236 Z-0.993
X150.167 Y62.265 Z-0.973
X150.134 Y62.29 Z-0.941
X150.108 Y62.309 Z-0.9
X150.092 Y62.321 Z-0.852
X150.087 Y62.325 Z-0.8
X149.847 Y62.005
Z-1.8 F314.
X149.852 Y62.001 Z-1.852
X149.868 Y61.989 Z-1.9
X149.894 Y61.97 Z-1.941
X149.927 Y61.945 Z-1.973
X149.966 Y61.916 Z-1.993
X150.007 Y61.885 Z-2.
X150.167 Y61.765
G3 X150.447 Y61.805 R0.2
X146.607 Y64.685 R2.4 F628.
X150.447 Y61.805 R2.4
X150.407 Y62.085 R0.2 F1256.
G1 X150.247 Y62.205
X150.206 Y62.236 Z-1.993
X150.167 Y62.265 Z-1.973
X150.134 Y62.29 Z-1.941
X150.108 Y62.309 Z-1.9
X150.092 Y62.321 Z-1.852
X150.087 Y62.325 Z-1.8
X149.847 Y62.005
Z-2.8 F314.
X149.852 Y62.001 Z-2.852
X149.868 Y61.989 Z-2.9
X149.894 Y61.97 Z-2.941
X149.927 Y61.945 Z-2.973
X149.966 Y61.916 Z-2.993
X150.007 Y61.885 Z-3.
X150.167 Y61.765
G3 X150.447 Y61.805 R0.2
X146.607 Y64.685 R2.4 F628.
X150.447 Y61.805 R2.4
X150.407 Y62.085 R0.2 F1256.
G1 X150.247 Y62.205
X150.206 Y62.236 Z-2.993
X150.167 Y62.265 Z-2.973
X150.134 Y62.29 Z-2.941
X150.108 Y62.309 Z-2.9
X150.092 Y62.321 Z-2.852
X150.087 Y62.325 Z-2.8
G0 Z5.
X73.711 Y25.647
G1 Z2. F314.
Z-0.8
G18 G2 X73.911 Z-1. R0.2
G1 X74.111
G17 G3 X74.311 Y25.847 R0.2
G2 X85.311 Y36.847 R11. F628.
G1 X97.189
G3 X106.189 Y45.847 R9.
G1 Y192.038
G3 X97.189 Y201.038 R9.
G1 X85.311
G2 X74.311 Y212.038 R11.
G1 Y227.442
G2 X85.311 Y238.442 R11.
G1 X153.057
G2 X164.057 Y227.442 R11.
G1 Y10.442
G2 X153.057 Y-0.558 R11.
G1 X85.311
G2 X74.311 Y10.442 R11.
G1 Y25.847
G3 X74.111 Y26.047 R0.2 F1256.
G1 X73.911
G18 G3 X73.711 Z-0.8 R0.2
G1 Y25.647
Z-1.8 F314.
G2 X73.911 Z-2. R0.2
G1 X74.111
G17 G3 X74.311 Y25.847 R0.2
G2 X85.311 Y36.847 R11. F628.
G1 X97.189
G3 X106.189 Y45.847 R9.
G1 Y192.038
G3 X97.189 Y201.038 R9.
G1 X85.311
G2 X74.311 Y212.038 R11.
G1 Y227.442
G2 X85.311 Y238.442 R11.
G1 X153.057
G2 X164.057 Y227.442 R11.
G1 Y10.442
G2 X153.057 Y-0.558 R11.
G1 X85.311
G2 X74.311 Y10.442 R11.
G1 Y25.847
G3 X74.111 Y26.047 R0.2 F1256.
G1 X73.911
G18 G3 X73.711 Z-1.8 R0.2
G1 Y25.647
Z-2.8 F314.
G2 X73.911 Z-3. R0.2
G1 X74.111
G17 G3 X74.311 Y25.847 R0.2
G2 X85.311 Y36.847 R11. F628.
G1 X97.189
G3 X106.189 Y45.847 R9.
G1 Y192.038
G3 X97.189 Y201.038 R9.
G1 X85.311
G2 X74.311 Y212.038 R11.
G1 Y227.442
G2 X85.311 Y238.442 R11.
G1 X153.057
G2 X164.057 Y227.442 R11.
G1 Y10.442
G2 X153.057 Y-0.558 R11.
G1 X85.311
G2 X74.311 Y10.442 R11.
G1 Y25.847
G3 X74.111 Y26.047 R0.2 F1256.
G1 X73.911
G18 G3 X73.711 Z-2.8 R0.2
G0 Z15.
G17

(2D CONTOUR2)
M8
G0 X32.701 Y208.226
Z15.
Z5.
G1 Z1. F314.
Z-2.9
X32.708 Z-2.952
X32.728 Z-3.
X32.759 Z-3.041
X32.801 Z-3.073
X32.849 Z-3.093
X32.901 Z-3.1
X33.101
G3 X33.301 Y208.426 R0.2
X18.501 Y208.424 R7.4 F628.
X33.301 Y208.426 R7.4
X33.101 Y208.626 R0.2 F1256.
G1 X32.901
X32.849 Z-3.093
X32.801 Z-3.073
X32.759 Z-3.041
X32.727 Z-3.
X32.707 Z-2.952
X32.701 Z-2.9
G0 Z5.
X68.645 Y226.491
G1 Z1. F314.
Z-2.9
G18 G2 X68.845 Z-3.1 R0.2
G1 X69.045
G17 G3 X69.245 Y226.691 R0.2
G1 Y227.066 F628.
Y227.466 F157.
X68.095 F628.
X67.695 F157.
Y212.907 F628.
Y212.507 F157.
X68.845 F628.
X69.245 F157.
Y226.691 F628.
G3 X69.045 Y226.891 R0.2 F1256.
G1 X68.845
G18 G3 X68.645 Z-2.9 R0.2
G0 Z5.
Y5.113
G1 Z1. F314.
Z-2.9
G2 X68.845 Z-3.1 R0.2
G1 X69.045
G17 G3 X69.245 Y5.313 R0.2
G1 Y19.097 F628.
Y19.497 F157.
X68.095 F628.
X67.695 F157.
Y4.938 F628.
Y4.538 F157.
X68.845 F628.
X69.245 F157.
Y5.313 F628.
G3 X69.045 Y5.513 R0.2 F1256.
G1 X68.845
G18 G3 X68.645 Z-2.9 R0.2
G0 Z5.
X73.911 Y3.7
G1 Z1. F314.
Z-2.9
G3 X73.711 Z-3.1 R0.2
G1 X73.511
G17 G3 X73.311 Y3.5 R0.2
G2 X70.311 Y0.5 R3. F628.
G1 X61.861
G3 X59.65 Y-0.167 R4.
G2 X54.122 R5.
G3 X51.911 Y0.5 R4.
G1 X45.861
G3 X43.65 Y-0.167 R4.
G2 X38.122 R5.
G3 X35.911 Y0.5 R4.
G1 X30.936
G2 X27.936 Y3.5 R3.
G1 Y3.996
G3 X26.936 Y4.996 R1.
G1 X17.116
G2 X15.116 Y6.996 R2.
G1 Y14.765
G3 X14.116 Y15.765 R1.
G1 X2.646
G2 X-0.354 Y18.765 R3.
G1 Y224.475
G2 X2.646 Y227.475 R3.
G1 X2.78
G3 X5.608 Y228.647 R4.
G1 X5.679 Y228.718
G2 X9.922 Y230.475 R6.
G1 X25.898
G3 X28.328 Y231.298 R4.
G2 X28.936 Y231.504 R1.
G1 X34.816
G3 X37.493 Y232.53 R4.
G2 X44.183 R5.
G3 X46.858 Y231.504 R4.
G1 X51.911
G3 X54.122 Y232.17 R4.
G2 X59.65 R5.
G3 X61.861 Y231.504 R4.
G1 X70.311
G2 X73.311 Y228.504 R3.
G1 Y212.504
G2 X70.311 Y209.504 R3.
G1 X61.861
G3 X59.65 Y208.837 R4.
G2 X54.122 R5.001
G3 X51.931 Y209.504 R4.
X47.951 Y205.504 R4.
G1 Y191.204
G2 X47.072 Y189.083 R3.
G1 X45.244 Y187.254
G2 X43.122 Y186.375 R3.
G1 X38.231
G3 X34.244 Y182.062 R4.
G1 X46.03 Y31.86
G2 X46.335 Y26.978 R13.486
G3 X50.307 Y22.5 R4.
G1 X51.911
G3 X54.122 Y23.167 R4.
G2 X59.65 R5.
G3 X61.861 Y22.5 R4.
G1 X70.311
G2 X73.311 Y19.5 R3.
G1 Y3.5
G3 X73.511 Y3.3 R0.2 F1256.
G1 X73.711
G18 G2 X73.911 Z-2.9 R0.2
G0 Z5.
X150.327 Y187.045
G1 Z1. F314.
Z-2.9
G2 X150.527 Z-3.1 R0.2
G1 X150.727
G17 G3 X150.927 Y187.245 R0.2
X146.127 R2.4 F628.
X150.927 R2.4
X150.727 Y187.445 R0.2 F1256.
G1 X150.527
G18 G3 X150.327 Z-2.9 R0.2
G0 Z5.
X149.847 Y62.005
G1 Z1. F314.
Z-2.9
X149.852 Y62.001 Z-2.952
X149.868 Y61.989 Z-3.
X149.894 Y61.97 Z-3.041
X149.927 Y61.945 Z-3.073
X149.966 Y61.916 Z-3.093
X150.007 Y61.885 Z-3.1
X150.167 Y61.765
G17 G3 X150.447 Y61.805 R0.2
X146.607 Y64.685 R2.4 F628.
X150.447 Y61.805 R2.4
X150.407 Y62.085 R0.2 F1256.
G1 X150.247 Y62.205
X150.206 Y62.236 Z-3.093
X150.167 Y62.265 Z-3.073
X150.134 Y62.29 Z-3.041
X150.108 Y62.309 Z-3.
X150.092 Y62.321 Z-2.952
X150.087 Y62.325 Z-2.9
G0 Z5.
X73.711 Y25.647
G1 Z1. F314.
Z-2.9
G18 G2 X73.911 Z-3.1 R0.2
G1 X74.111
G17 G3 X74.311 Y25.847 R0.2
G2 X85.311 Y36.847 R11. F628.
G1 X97.189
G3 X106.189 Y45.847 R9.
G1 Y192.038
G3 X97.189 Y201.038 R9.
G1 X85.311
G2 X74.311 Y212.038 R11.
G1 Y227.442
G2 X85.311 Y238.442 R11.
G1 X153.057
G2 X164.057 Y227.442 R11.
G1 Y10.442
G2 X153.057 Y-0.558 R11.
G1 X85.311
G2 X74.311 Y10.442 R11.
G1 Y25.847
G3 X74.111 Y26.047 R0.2 F1256.
G1 X73.911
G18 G3 X73.711 Z-2.9 R0.2
G0 Z15.
G17

M9
G53 G0
M30
