(Z AND Y FRAME PLUS SMALL ONES)
(T1  D=3. CR=0. TAPER=118DEG - ZMIN=-4.001 - DRILL)
(T2  D=2. CR=0. - ZMIN=-3.1 - FLAT END MILL)
(T3  D=1.7 CR=0. TAPER=118DEG - ZMIN=-3.611 - DRILL)
G90 G94 G91.1 G40 G49 G17
G21

(DRILL1)
M5
M9
T3 M6
S12500 M3
G54
M8
G0 X31.025 Y64.791
G43 Z15. H3
Z5.
G98 G73 X31.025 Y64.791 Z-3.611 R5. Q0.425 F300.
X21.025
Y71.491
X31.025
G80
Z15.

(DRILL2)
M5
M9
M1
T1 M6
S10500 M3
M9
G0 X-21.841 Y17.81
G43 Z15. H1
Z5.
G73 X-21.841 Y17.81 Z-4.001 R5. Q0.75 F300.
X-27.841
X-26.438 Y13.953
X-22.883 Y11.901
X-18.841 Y12.613
X-16.203 Y15.757
Y19.862
X-18.841 Y23.006
X-22.883 Y23.718
X-26.438 Y21.666
X-33.841 Y17.81
X-39.841
X-45.841
X-33.118 Y13.705
X-31.034 Y10.096
X-27.841 Y7.417
X-23.925 Y5.992
X-19.758
X-15.841 Y7.417
X-12.649 Y10.096
X-10.565 Y13.705
X-9.841 Y17.81
X-10.565 Y21.914
X-12.649 Y25.523
X-15.841 Y28.202
X-19.758 Y29.627
X-23.925
X-27.841 Y28.202
X-31.034 Y25.523
X-33.118 Y21.914
X-39.448 Y21.552
X-38.285 Y25.131
X-36.404 Y28.39
X-33.886 Y31.186
X-30.841 Y33.398
X-27.404 Y34.929
X-23.723 Y35.711
X-19.96
X-16.279 Y34.929
X-12.841 Y33.398
X-9.797 Y31.186
X-7.279 Y28.39
X-5.397 Y25.131
X-4.235 Y21.552
X-3.841 Y17.81
X-4.235 Y14.067
X-5.397 Y10.488
X-7.279 Y7.229
X-9.797 Y4.433
X-12.841 Y2.221
X-16.279 Y0.691
X-19.96 Y-0.092
X-23.723
X-27.404 Y0.691
X-30.841 Y2.221
X-33.886 Y4.433
X-36.404 Y7.229
X-38.285 Y10.488
X-39.448 Y14.067
X-45.433 Y22.22
X-44.221 Y26.479
X-42.247 Y30.444
X-39.578 Y33.978
X-36.305 Y36.962
X-32.539 Y39.293
X-28.409 Y40.893
X-24.056 Y41.707
X-19.627
X-15.273 Y40.893
X-11.144 Y39.293
X-7.378 Y36.962
X-4.105 Y33.978
X-1.436 Y30.444
X0.538 Y26.479
X1.75 Y22.22
X2.159 Y17.81
X1.75 Y13.4
X0.538 Y9.14
X-1.436 Y5.175
X-4.105 Y1.641
X-7.378 Y-1.343
X-11.144 Y-3.674
X-15.273 Y-5.274
X-19.627 Y-6.088
X-24.056
X-28.409 Y-5.274
X-32.539 Y-3.674
X-36.305 Y-1.343
X-39.578 Y1.641
X-42.247 Y5.175
X-44.221 Y9.14
X-45.433 Y13.4
X-35.232 Y111.
X24.768
X84.768
Y-98.
X24.768
X-35.232
G80
X47.596 Y-110.817 Z5.
G73 X47.596 Y-110.817 Z-4.001 R3.45 Q0.75 F300.
X78.596
G80
X90.103 Y6.5 Z5.
G73 X90.103 Y6.5 Z-4.001 R5. Q0.75 F300.
X-82.75 Y-92.2
Y105.2
Y80.29
Y-67.29
X41.183 Y-97.447
X10.645 Y33.31
X58.745
Y-19.69
X10.645
X4.809 Y-28.44
Y64.06
X-48.491
Y-28.44
X54.761 Y-56.307
X-21.405 Y79.558
Y-44.442
X40.965 Y30.221
Y53.721
G80
X-53.987 Y-113.486 Z5.
G73 X-53.987 Y-113.486 Z-4.001 R2. Q0.75 F300.
Y-81.414
G80
Y94.414 Z5.
G73 X-53.987 Y94.414 Z-4.001 R5. Q0.75 F300.
Y-81.414
Y-113.486
X42.695 Y-59.442
Y-44.442
X26.695
Y-59.442
X42.695 Y79.558
Y94.558
X26.695
Y79.558
X-84.9 Y18.965
Y42.465
G80
X11.252 Y87.859 Z5.
G73 X11.252 Y87.859 Z-4.001 R2. Q0.75 F300.
Y96.1
X-3.748
Y87.859
X25.628 Y-75.881
X37.814
X46.814 Y-74.881
X59.
X16.593 Y-79.5
X10.717 Y-62.4
X2.752
X-5.213
X0.664 Y-79.5
G80
Z15.

(2D CONTOUR1)
M5
M9
M1
T2 M6
S10500 M3
M8
G0 X12.078 Y-79.7
G43 Z15. H2
Z5.
G1 Z2. F314.
Z-0.8
G18 G2 X12.278 Z-1. R0.2
G1 X12.478
G17 G3 X12.678 Y-79.5 R0.2
X4.578 R4.05 F628.
X12.678 R4.05
X12.478 Y-79.3 R0.2 F1256.
G1 X12.278
G18 G3 X12.078 Z-0.8 R0.2
G1 Y-79.7
Z-1.8 F314.
G2 X12.278 Z-2. R0.2
G1 X12.478
G17 G3 X12.678 Y-79.5 R0.2
X4.578 R4.05 F628.
X12.678 R4.05
X12.478 Y-79.3 R0.2 F1256.
G1 X12.278
G18 G3 X12.078 Z-1.8 R0.2
G1 Y-79.7
Z-2.35 F314.
G2 X12.278 Z-2.55 R0.2
G1 X12.478
G17 G3 X12.678 Y-79.5 R0.2
X4.578 R4.05 F628.
X12.678 R4.05
X12.478 Y-79.3 R0.2 F1256.
G1 X12.278
G18 G3 X12.078 Z-2.35 R0.2
G1 Y-79.7
Z-2.9 F314.
G2 X12.278 Z-3.1 R0.2
G1 X12.478
G17 G3 X12.678 Y-79.5 R0.2
X4.578 R4.05 F628.
X12.678 R4.05
X12.478 Y-79.3 R0.2 F1256.
G1 X12.278
G18 G3 X12.078 Z-2.9 R0.2
G0 Z5.
X4.759 Y-65.213
G1 Z2. F314.
Z-0.8
X4.764 Y-65.218 Z-0.852
X4.776 Y-65.234 Z-0.9
X4.796 Y-65.259 Z-0.941
X4.822 Y-65.291 Z-0.973
X4.852 Y-65.329 Z-0.993
X4.885 Y-65.369 Z-1.
X5.01 Y-65.525
G17 G3 X5.291 Y-65.555 R0.2
X0.213 Y-59.245 R4.05 F628.
X5.291 Y-65.555 R4.05
X5.322 Y-65.274 R0.2 F1256.
G1 X5.196 Y-65.118
X5.164 Y-65.078 Z-0.993
X5.134 Y-65.04 Z-0.973
X5.108 Y-65.008 Z-0.941
X5.088 Y-64.983 Z-0.9
X5.075 Y-64.968 Z-0.852
X5.071 Y-64.962 Z-0.8
X4.759 Y-65.213
Z-1.8 F314.
X4.764 Y-65.218 Z-1.852
X4.776 Y-65.234 Z-1.9
X4.796 Y-65.259 Z-1.941
X4.822 Y-65.291 Z-1.973
X4.852 Y-65.329 Z-1.993
X4.885 Y-65.369 Z-2.
X5.01 Y-65.525
G3 X5.291 Y-65.555 R0.2
X0.213 Y-59.245 R4.05 F628.
X5.291 Y-65.555 R4.05
X5.322 Y-65.274 R0.2 F1256.
G1 X5.196 Y-65.118
X5.164 Y-65.078 Z-1.993
X5.134 Y-65.04 Z-1.973
X5.108 Y-65.008 Z-1.941
X5.088 Y-64.983 Z-1.9
X5.075 Y-64.968 Z-1.852
X5.071 Y-64.962 Z-1.8
X4.759 Y-65.213
Z-2.35 F314.
X4.764 Y-65.218 Z-2.402
X4.776 Y-65.234 Z-2.45
X4.796 Y-65.259 Z-2.491
X4.822 Y-65.291 Z-2.523
X4.852 Y-65.329 Z-2.543
X4.885 Y-65.369 Z-2.55
X5.01 Y-65.525
G3 X5.291 Y-65.555 R0.2
X0.213 Y-59.245 R4.05 F628.
X5.291 Y-65.555 R4.05
X5.322 Y-65.274 R0.2 F1256.
G1 X5.196 Y-65.118
X5.164 Y-65.078 Z-2.543
X5.134 Y-65.04 Z-2.523
X5.108 Y-65.008 Z-2.491
X5.088 Y-64.983 Z-2.45
X5.075 Y-64.968 Z-2.402
X5.071 Y-64.962 Z-2.35
X4.759 Y-65.213
Z-2.9 F314.
X4.764 Y-65.218 Z-2.952
X4.776 Y-65.234 Z-3.
X4.796 Y-65.259 Z-3.041
X4.822 Y-65.291 Z-3.073
X4.852 Y-65.329 Z-3.093
X4.885 Y-65.369 Z-3.1
X5.01 Y-65.525
G3 X5.291 Y-65.555 R0.2
X0.213 Y-59.245 R4.05 F628.
X5.291 Y-65.555 R4.05
X5.322 Y-65.274 R0.2 F1256.
G1 X5.196 Y-65.118
X5.164 Y-65.078 Z-3.093
X5.134 Y-65.04 Z-3.073
X5.108 Y-65.008 Z-3.041
X5.088 Y-64.983 Z-3.
X5.075 Y-64.968 Z-2.952
X5.071 Y-64.962 Z-2.9
G0 Z5.
X14.799 Y-66.096
G1 Z2. F314.
Z-0.8
X14.793 Y-66.094 Z-0.852
X14.774 Y-66.088 Z-0.9
X14.744 Y-66.078 Z-0.941
X14.704 Y-66.065 Z-0.973
X14.658 Y-66.051 Z-0.993
X14.609 Y-66.035 Z-1.
X14.419 Y-65.973
G3 X14.167 Y-66.102 R0.2
G2 X11.964 Y-70.091 R12. F628.
X11.196 Y-70.45 R1.
G1 X-5.692
G2 X-6.459 Y-70.091 R1.
X11.964 Y-54.709 R12.
X14.167 Y-66.102 R12.
G3 X14.296 Y-66.353 R0.2 F1256.
G1 X14.486 Y-66.415
X14.535 Y-66.431 Z-0.993
X14.581 Y-66.446 Z-0.973
X14.62 Y-66.459 Z-0.941
X14.651 Y-66.469 Z-0.9
X14.67 Y-66.475 Z-0.852
X14.676 Y-66.477 Z-0.8
X17.959 Y-71.104
X17.955 Y-71.109 Z-0.852 F314.
X17.942 Y-71.124 Z-0.9
X17.921 Y-71.148 Z-0.941
X17.894 Y-71.18 Z-0.973
X17.863 Y-71.216 Z-0.993
X17.829 Y-71.256 Z-1.
X17.699 Y-71.408
G3 X17.722 Y-71.69 R0.2
G2 X17.84 Y-71.809 R1. F628.
X-0.583 Y-87.191 R12.
Y-71.809 R12.
X0.184 Y-71.45 R1.
G1 X17.072
G2 X17.722 Y-71.69 R1.
G3 X18.004 Y-71.667 R0.2 F1256.
G1 X18.133 Y-71.515
X18.167 Y-71.476 Z-0.993
X18.198 Y-71.439 Z-0.973
X18.225 Y-71.408 Z-0.941
X18.246 Y-71.384 Z-0.9
X18.259 Y-71.369 Z-0.852
X18.263 Y-71.363 Z-0.8
X21.856 Y-71.965
X21.859 Y-71.972 Z-0.852 F314.
X21.866 Y-71.99 Z-0.9
X21.878 Y-72.02 Z-0.941
X21.893 Y-72.058 Z-0.973
X21.911 Y-72.103 Z-0.993
X21.93 Y-72.151 Z-1.
X22.003 Y-72.338
G3 X22.262 Y-72.45 R0.2
G2 X22.628 Y-72.381 R1. F628.
G1 X28.628
G2 X29.628 Y-73.381 R1.
G1 Y-78.381
G3 X30.628 Y-79.381 R1.
G1 X32.814
G3 X33.814 Y-78.381 R1.
G1 Y-73.381
G2 X34.814 Y-72.381 R1.
G1 X40.814
G2 X41.814 Y-73.381 R1.
G1 Y-78.381
G3 X42.814 Y-79.381 R1.
G1 X54.051
G2 X54.809 Y-79.729 R1.
G1 X56.14 Y-81.277
G2 X56.382 Y-81.929 R1.
G1 Y-82.881
G2 X53.382 Y-85.881 R3.
G1 X24.628
G2 X21.628 Y-82.881 R3.
G1 Y-73.381
G2 X22.262 Y-72.45 R1.
G3 X22.375 Y-72.191 R0.2 F1256.
G1 X22.302 Y-72.005
X22.283 Y-71.957 Z-0.993
X22.265 Y-71.912 Z-0.973
X22.25 Y-71.873 Z-0.941
X22.238 Y-71.844 Z-0.9
X22.231 Y-71.825 Z-0.852
X22.228 Y-71.819 Z-0.8
X27.647 Y-68.331
G18 G2 X27.847 Z-1. R0.2 F314.
G1 X28.047
G17 G3 X28.247 Y-68.131 R0.2
G1 Y-67.881 F628.
G2 X31.247 Y-64.881 R3.
G1 X60.
G2 X63. Y-67.881 R3.
G1 Y-77.381
G2 X62. Y-78.381 R1.
G1 X56.
G2 X55. Y-77.381 R1.
G1 Y-72.381
G3 X54. Y-71.381 R1.
G1 X51.814
G3 X50.814 Y-72.381 R1.
G1 Y-77.381
G2 X49.814 Y-78.381 R1.
G1 X43.814
G2 X42.814 Y-77.381 R1.
G1 Y-72.381
G3 X41.814 Y-71.381 R1.
G1 X30.577
G2 X29.819 Y-71.033 R1.
G1 X28.488 Y-69.485
G2 X28.247 Y-68.833 R1.
G1 Y-68.131
G3 X28.047 Y-67.931 R0.2 F1256.
G1 X27.847
G18 G3 X27.647 Z-0.8 R0.2
G1 X22.428 Y-71.781
Z-1.8 F314.
G19 G2 Y-71.981 Z-2. R0.2
G1 Y-72.181
G17 G3 X22.628 Y-72.381 R0.2
G1 X28.628 F628.
G2 X29.628 Y-73.381 R1.
G1 Y-78.381
G3 X30.628 Y-79.381 R1.
G1 X32.814
G3 X33.814 Y-78.381 R1.
G1 Y-73.381
G2 X34.814 Y-72.381 R1.
G1 X40.814
G2 X41.814 Y-73.381 R1.
G1 Y-78.381
G3 X42.814 Y-79.381 R1.
G1 X54.051
G2 X54.809 Y-79.729 R1.
G1 X56.14 Y-81.277
G2 X56.382 Y-81.929 R1.
G1 Y-82.881
G2 X53.382 Y-85.881 R3.
G1 X24.628
G2 X21.628 Y-82.881 R3.
G1 Y-73.381
G2 X22.628 Y-72.381 R1.
G3 X22.828 Y-72.181 R0.2 F1256.
G1 Y-71.981
G19 G3 Y-71.781 Z-1.8 R0.2
G0 Z5.
X14.472 Y92.52
G1 Z2. F314.
Z-0.8
X14.468 Y92.525 Z-0.852
X14.456 Y92.541 Z-0.9
X14.437 Y92.567 Z-0.941
X14.412 Y92.6 Z-0.973
X14.383 Y92.638 Z-0.993
X14.352 Y92.68 Z-1.
X14.232 Y92.84
G17 G3 X13.952 Y92.88 R0.2
G2 X12.752 Y92.48 R2. F628.
G1 X-5.248
G2 X-7.248 Y94.48 R2.
G1 Y98.5
G2 X-5.248 Y100.5 R2.
G1 X12.752
G2 X14.752 Y98.5 R2.
G1 Y94.48
G2 X13.952 Y92.88 R2.
G3 X13.912 Y92.6 R0.2 F1256.
G1 X14.032 Y92.44
X14.063 Y92.398 Z-0.993
X14.092 Y92.36 Z-0.973
X14.117 Y92.327 Z-0.941
X14.136 Y92.301 Z-0.9
X14.148 Y92.285 Z-0.852
X14.152 Y92.28 Z-0.8
Y91.68
X14.148 Y91.674 Z-0.852 F314.
X14.136 Y91.658 Z-0.9
X14.117 Y91.633 Z-0.941
X14.092 Y91.6 Z-0.973
X14.063 Y91.561 Z-0.993
X14.032 Y91.52 Z-1.
X13.912 Y91.36
G3 X13.952 Y91.08 R0.2
G2 X14.752 Y89.48 R2. F628.
G1 Y85.459
G2 X12.752 Y83.459 R2.
G1 X-5.248
G2 X-7.248 Y85.459 R2.
G1 Y89.48
G2 X-5.248 Y91.48 R2.
G1 X12.775
G2 X13.952 Y91.08 R2.
G3 X14.232 Y91.12 R0.2 F1256.
G1 X14.352 Y91.28
X14.383 Y91.321 Z-0.993
X14.412 Y91.36 Z-0.973
X14.437 Y91.393 Z-0.941
X14.456 Y91.418 Z-0.9
X14.468 Y91.434 Z-0.852
X14.472 Y91.44 Z-0.8
G0 Z5.
X27.095 Y-32.298
G1 Z2. F314.
Z-0.8
G18 G2 X27.295 Z-1. R0.2
G1 X27.495
G17 G3 X27.695 Y-32.098 R0.2
G1 Y-26.69 F628.
G3 X25.695 Y-24.69 R2.
G1 X11.995
G3 X10.995 Y-25.69 R1.
G1 Y-38.505
G3 X11.995 Y-39.505 R1.
G1 X25.695
G3 X27.695 Y-37.505 R2.
G1 Y-32.098
G3 X27.495 Y-31.898 R0.2 F1256.
G1 X27.295
G18 G3 X27.095 Z-0.8 R0.2
G1 Y-32.298
Z-1.8 F314.
G2 X27.295 Z-2. R0.2
G1 X27.495
G17 G3 X27.695 Y-32.098 R0.2
G1 Y-26.69 F628.
G3 X25.695 Y-24.69 R2.
G1 X11.995
G3 X10.995 Y-25.69 R1.
G1 Y-38.505
G3 X11.995 Y-39.505 R1.
G1 X25.695
G3 X27.695 Y-37.505 R2.
G1 Y-32.098
G3 X27.495 Y-31.898 R0.2 F1256.
G1 X27.295
G18 G3 X27.095 Z-1.8 R0.2
G1 Y-32.298
Z-2.35 F314.
G2 X27.295 Z-2.55 R0.2
G1 X27.495
G17 G3 X27.695 Y-32.098 R0.2
G1 Y-26.69 F628.
G3 X25.695 Y-24.69 R2.
G1 X11.995
G3 X10.995 Y-25.69 R1.
G1 Y-38.505
G3 X11.995 Y-39.505 R1.
G1 X25.695
G3 X27.695 Y-37.505 R2.
G1 Y-32.098
G3 X27.495 Y-31.898 R0.2 F1256.
G1 X27.295
G18 G3 X27.095 Z-2.35 R0.2
G1 Y-32.298
Z-2.9 F314.
G2 X27.295 Z-3.1 R0.2
G1 X27.495
G17 G3 X27.695 Y-32.098 R0.2
G1 Y-26.69 F628.
G3 X25.695 Y-24.69 R2.
G1 X11.995
G3 X10.995 Y-25.69 R1.
G1 Y-38.505
G3 X11.995 Y-39.505 R1.
G1 X25.695
G3 X27.695 Y-37.505 R2.
G1 Y-32.098
G3 X27.495 Y-31.898 R0.2 F1256.
G1 X27.295
G18 G3 X27.095 Z-2.9 R0.2
G0 Z5.
X48.902 Y-38.905
G1 Z2. F314.
Z-0.8
G19 G2 Y-39.105 Z-1. R0.2
G1 Y-39.305
G17 G3 X49.102 Y-39.505 R0.2
G1 X57.395 F628.
G3 X58.395 Y-38.505 R1.
G1 Y-25.69
G3 X57.395 Y-24.69 R1.
G1 X43.695
G3 X41.695 Y-26.69 R2.
G1 Y-37.505
G3 X43.695 Y-39.505 R2.
G1 X49.102
G3 X49.302 Y-39.305 R0.2 F1256.
G1 Y-39.105
G19 G3 Y-38.905 Z-0.8 R0.2
G1 X48.902
Z-1.8 F314.
G2 Y-39.105 Z-2. R0.2
G1 Y-39.305
G17 G3 X49.102 Y-39.505 R0.2
G1 X57.395 F628.
G3 X58.395 Y-38.505 R1.
G1 Y-25.69
G3 X57.395 Y-24.69 R1.
G1 X43.695
G3 X41.695 Y-26.69 R2.
G1 Y-37.505
G3 X43.695 Y-39.505 R2.
G1 X49.102
G3 X49.302 Y-39.305 R0.2 F1256.
G1 Y-39.105
G19 G3 Y-38.905 Z-1.8 R0.2
G1 X48.902
Z-2.35 F314.
G2 Y-39.105 Z-2.55 R0.2
G1 Y-39.305
G17 G3 X49.102 Y-39.505 R0.2
G1 X57.395 F628.
G3 X58.395 Y-38.505 R1.
G1 Y-25.69
G3 X57.395 Y-24.69 R1.
G1 X43.695
G3 X41.695 Y-26.69 R2.
G1 Y-37.505
G3 X43.695 Y-39.505 R2.
G1 X49.102
G3 X49.302 Y-39.305 R0.2 F1256.
G1 Y-39.105
G19 G3 Y-38.905 Z-2.35 R0.2
G1 X48.902
Z-2.9 F314.
G2 Y-39.105 Z-3.1 R0.2
G1 Y-39.305
G17 G3 X49.102 Y-39.505 R0.2
G1 X57.395 F628.
G3 X58.395 Y-38.505 R1.
G1 Y-25.69
G3 X57.395 Y-24.69 R1.
G1 X43.695
G3 X41.695 Y-26.69 R2.
G1 Y-37.505
G3 X43.695 Y-39.505 R2.
G1 X49.102
G3 X49.302 Y-39.305 R0.2 F1256.
G1 Y-39.105
G19 G3 Y-38.905 Z-2.9 R0.2
G0 Z5.
X33.624 Y-15.09
G1 Z2. F314.
Z-0.8
G2 Y-15.29 Z-1. R0.2
G1 Y-15.49
G17 G3 X33.824 Y-15.69 R0.2
G1 X54.595 F628.
X54.995 F157.
Y28.91 F628.
Y29.31 F157.
X50.532 F628.
G3 X48.619 Y27.892 R2.
G2 X33.312 R8.
G3 X31.398 Y29.31 R2.
G1 X14.795
X14.395 F157.
Y-15.29 F628.
Y-15.69 F157.
X33.824 F628.
G3 X34.024 Y-15.49 R0.2 F1256.
G1 Y-15.29
G19 G3 Y-15.09 Z-0.8 R0.2
G1 X33.624
Z-1.8 F314.
G2 Y-15.29 Z-2. R0.2
G1 Y-15.49
G17 G3 X33.824 Y-15.69 R0.2
G1 X54.595 F628.
X54.995 F157.
Y28.91 F628.
Y29.31 F157.
X50.532 F628.
G3 X48.619 Y27.892 R2.
G2 X33.312 R8.
G3 X31.398 Y29.31 R2.
G1 X14.795
X14.395 F157.
Y-15.29 F628.
Y-15.69 F157.
X33.824 F628.
G3 X34.024 Y-15.49 R0.2 F1256.
G1 Y-15.29
G19 G3 Y-15.09 Z-1.8 R0.2
G1 X33.624
Z-2.35 F314.
G2 Y-15.29 Z-2.55 R0.2
G1 Y-15.49
G17 G3 X33.824 Y-15.69 R0.2
G1 X54.595 F628.
X54.995 F157.
Y28.91 F628.
Y29.31 F157.
X50.532 F628.
G3 X48.619 Y27.892 R2.
G2 X33.312 R8.
G3 X31.398 Y29.31 R2.
G1 X14.795
X14.395 F157.
Y-15.29 F628.
Y-15.69 F157.
X33.824 F628.
G3 X34.024 Y-15.49 R0.2 F1256.
G1 Y-15.29
G19 G3 Y-15.09 Z-2.35 R0.2
G1 X33.624
Z-2.9 F314.
G2 Y-15.29 Z-3.1 R0.2
G1 Y-15.49
G17 G3 X33.824 Y-15.69 R0.2
G1 X54.595 F628.
X54.995 F157.
Y28.91 F628.
Y29.31 F157.
X50.532 F628.
G3 X48.619 Y27.892 R2.
G2 X33.312 R8.
G3 X31.398 Y29.31 R2.
G1 X14.795
X14.395 F157.
Y-15.29 F628.
Y-15.69 F157.
X33.824 F628.
G3 X34.024 Y-15.49 R0.2 F1256.
G1 Y-15.29
G19 G3 Y-15.09 Z-2.9 R0.2
G0 Z5.
X41.805 Y30.601
G1 Z2. F314.
Z-0.8
X41.811 Y30.605 Z-0.852
X41.827 Y30.617 Z-0.9
X41.852 Y30.636 Z-0.941
X41.885 Y30.661 Z-0.973
X41.924 Y30.69 Z-0.993
X41.965 Y30.721 Z-1.
X42.125 Y30.841
G17 G3 X42.165 Y31.121 R0.2
X39.765 Y29.321 R1.5 F628.
X42.165 Y31.121 R1.5
X41.885 Y31.161 R0.2 F1256.
G1 X41.725 Y31.041
X41.684 Y31.01 Z-0.993
X41.645 Y30.981 Z-0.973
X41.612 Y30.956 Z-0.941
X41.587 Y30.937 Z-0.9
X41.571 Y30.925 Z-0.852
X41.565 Y30.921 Z-0.8
X41.805 Y30.601
Z-1.8 F314.
X41.811 Y30.605 Z-1.852
X41.827 Y30.617 Z-1.9
X41.852 Y30.636 Z-1.941
X41.885 Y30.661 Z-1.973
X41.924 Y30.69 Z-1.993
X41.965 Y30.721 Z-2.
X42.125 Y30.841
G3 X42.165 Y31.121 R0.2
X39.765 Y29.321 R1.5 F628.
X42.165 Y31.121 R1.5
X41.885 Y31.161 R0.2 F1256.
G1 X41.725 Y31.041
X41.684 Y31.01 Z-1.993
X41.645 Y30.981 Z-1.973
X41.612 Y30.956 Z-1.941
X41.587 Y30.937 Z-1.9
X41.571 Y30.925 Z-1.852
X41.565 Y30.921 Z-1.8
X41.805 Y30.601
Z-2.35 F314.
X41.811 Y30.605 Z-2.402
X41.827 Y30.617 Z-2.45
X41.852 Y30.636 Z-2.491
X41.885 Y30.661 Z-2.523
X41.924 Y30.69 Z-2.543
X41.965 Y30.721 Z-2.55
X42.125 Y30.841
G3 X42.165 Y31.121 R0.2
X39.765 Y29.321 R1.5 F628.
X42.165 Y31.121 R1.5
X41.885 Y31.161 R0.2 F1256.
G1 X41.725 Y31.041
X41.684 Y31.01 Z-2.543
X41.645 Y30.981 Z-2.523
X41.612 Y30.956 Z-2.491
X41.587 Y30.937 Z-2.45
X41.571 Y30.925 Z-2.402
X41.565 Y30.921 Z-2.35
X41.805 Y30.601
Z-2.9 F314.
X41.811 Y30.605 Z-2.952
X41.827 Y30.617 Z-3.
X41.852 Y30.636 Z-3.041
X41.885 Y30.661 Z-3.073
X41.924 Y30.69 Z-3.093
X41.965 Y30.721 Z-3.1
X42.125 Y30.841
G3 X42.165 Y31.121 R0.2
X39.765 Y29.321 R1.5 F628.
X42.165 Y31.121 R1.5
X41.885 Y31.161 R0.2 F1256.
G1 X41.725 Y31.041
X41.684 Y31.01 Z-3.093
X41.645 Y30.981 Z-3.073
X41.612 Y30.956 Z-3.041
X41.587 Y30.937 Z-3.
X41.571 Y30.925 Z-2.952
X41.565 Y30.921 Z-2.9
G0 Z5.
X41.865 Y53.521
G1 Z2. F314.
Z-0.8
G18 G2 X42.065 Z-1. R0.2
G1 X42.265
G17 G3 X42.465 Y53.721 R0.2
X39.465 R1.5 F628.
X42.465 R1.5
X42.265 Y53.921 R0.2 F1256.
G1 X42.065
G18 G3 X41.865 Z-0.8 R0.2
G1 Y53.521
Z-1.8 F314.
G2 X42.065 Z-2. R0.2
G1 X42.265
G17 G3 X42.465 Y53.721 R0.2
X39.465 R1.5 F628.
X42.465 R1.5
X42.265 Y53.921 R0.2 F1256.
G1 X42.065
G18 G3 X41.865 Z-1.8 R0.2
G1 Y53.521
Z-2.35 F314.
G2 X42.065 Z-2.55 R0.2
G1 X42.265
G17 G3 X42.465 Y53.721 R0.2
X39.465 R1.5 F628.
X42.465 R1.5
X42.265 Y53.921 R0.2 F1256.
G1 X42.065
G18 G3 X41.865 Z-2.35 R0.2
G1 Y53.521
Z-2.9 F314.
G2 X42.065 Z-3.1 R0.2
G1 X42.265
G17 G3 X42.465 Y53.721 R0.2
X39.465 R1.5 F628.
X42.465 R1.5
X42.265 Y53.921 R0.2 F1256.
G1 X42.065
G18 G3 X41.865 Z-2.9 R0.2
G0 Z5.
X11.586 Y81.156
G1 Z2. F314.
Z-0.8
Y81.149 Z-0.852
X11.587 Y81.129 Z-0.9
Y81.097 Z-0.941
Y81.056 Z-0.973
X11.588 Y81.008 Z-0.993
Y80.956 Z-1.
X11.59 Y80.756
G17 G3 X11.792 Y80.558 R0.2
X15.752 Y84.558 R4. F628.
G1 Y93.5
G2 X21.752 Y99.5 R6.
G1 X57.
G2 X63. Y93.5 R6.
G1 Y-57.881
G2 X57. Y-63.881 R6.
G1 X21.752
G2 X15.752 Y-57.881 R6.
G1 Y-48.939
G3 X11.752 Y-44.939 R4.
G1 X-12.531
G3 X-13.024 Y-45.355 R0.5
G2 X-29.872 Y-44.684 R8.5
G3 X-30.076 Y-44.323 R0.5
G1 X-42.683 Y-35.149
G3 X-43.283 Y-35.158 R0.5
G2 X-56.143 Y-24.739 R8.5
G3 X-56.093 Y-24.521 R0.5
G1 Y60.14
G3 X-56.143 Y60.358 R0.5
G2 X-43.283 Y70.777 R8.5
G3 X-42.683 Y70.768 R0.5
G1 X-30.076 Y79.942
G3 X-29.872 Y80.303 R0.5
G2 X-13.024 Y80.974 R8.5
G3 X-12.531 Y80.558 R0.5
G1 X11.752
X11.792
G3 X11.99 Y80.76 R0.2 F1256.
G1 X11.988 Y80.96
Y81.012 Z-0.993
X11.987 Y81.06 Z-0.973
Y81.101 Z-0.941
Y81.133 Z-0.9
X11.986 Y81.153 Z-0.852
Y81.16 Z-0.8
G0 Z5.
X2.488 Y-49.801
G1 Z1. F314.
Z-1.8
Y-49.808 Z-1.852
Y-49.828 Z-1.9
X2.489 Y-49.86 Z-1.941
Y-49.901 Z-1.973
Y-49.949 Z-1.993
Y-50.001 Z-2.
X2.49 Y-50.201
G3 X2.691 Y-50.4 R0.2
G2 X11.964 Y-70.091 R12. F628.
X11.196 Y-70.45 R1.
G1 X-5.692
G2 X-6.459 Y-70.091 R1.
X2.691 Y-50.4 R12.
G3 X2.89 Y-50.199 R0.2 F1256.
G1 X2.889 Y-49.999
Y-49.947 Z-1.993
Y-49.899 Z-1.973
Y-49.858 Z-1.941
X2.888 Y-49.826 Z-1.9
Y-49.806 Z-1.852
Y-49.799 Z-1.8
G0 Z5.
X-5.048 Y82.859
G1 Z1. F314.
Z-1.8
G19 G3 Y83.059 Z-2. R0.2
G1 Y83.259
G17 G3 X-5.248 Y83.459 R0.2
G2 X-7.248 Y85.459 R2. F628.
G1 Y89.48
G2 X-5.248 Y91.48 R2.
G1 X12.775
G2 X14.752 Y89.48 R2.
G1 Y85.459
G2 X12.752 Y83.459 R2.
G1 X-5.248
G3 X-5.448 Y83.259 R0.2 F1256.
G1 Y83.059
G19 G2 Y82.859 Z-1.8 R0.2
G0 Z5.
X-83.85 Y42.265
G1 Z2. F314.
Z-0.8
G18 G2 X-83.65 Z-1. R0.2
G1 X-83.45
G17 G3 X-83.25 Y42.465 R0.2
X-86.55 R1.65 F628.
X-83.25 R1.65
X-83.45 Y42.665 R0.2 F1256.
G1 X-83.65
G18 G3 X-83.85 Z-0.8 R0.2
G1 Y42.265
Z-1.8 F314.
G2 X-83.65 Z-2. R0.2
G1 X-83.45
G17 G3 X-83.25 Y42.465 R0.2
X-86.55 R1.65 F628.
X-83.25 R1.65
X-83.45 Y42.665 R0.2 F1256.
G1 X-83.65
G18 G3 X-83.85 Z-1.8 R0.2
G1 Y42.265
Z-2.35 F314.
G2 X-83.65 Z-2.55 R0.2
G1 X-83.45
G17 G3 X-83.25 Y42.465 R0.2
X-86.55 R1.65 F628.
X-83.25 R1.65
X-83.45 Y42.665 R0.2 F1256.
G1 X-83.65
G18 G3 X-83.85 Z-2.35 R0.2
G1 Y42.265
Z-2.9 F314.
G2 X-83.65 Z-3.1 R0.2
G1 X-83.45
G17 G3 X-83.25 Y42.465 R0.2
X-86.55 R1.65 F628.
X-83.25 R1.65
X-83.45 Y42.665 R0.2 F1256.
G1 X-83.65
G18 G3 X-83.85 Z-2.9 R0.2
G0 Z5.
X-83.94 Y19.435
G1 Z2. F314.
Z-0.8
X-83.935 Y19.439 Z-0.852
X-83.919 Y19.451 Z-0.9
X-83.893 Y19.47 Z-0.941
X-83.86 Y19.495 Z-0.973
X-83.821 Y19.524 Z-0.993
X-83.78 Y19.555 Z-1.
X-83.62 Y19.675
G17 G3 X-83.58 Y19.955 R0.2
X-86.22 Y17.975 R1.65 F628.
X-83.58 Y19.955 R1.65
X-83.86 Y19.995 R0.2 F1256.
G1 X-84.02 Y19.875
X-84.061 Y19.844 Z-0.993
X-84.1 Y19.815 Z-0.973
X-84.133 Y19.79 Z-0.941
X-84.159 Y19.771 Z-0.9
X-84.175 Y19.759 Z-0.852
X-84.18 Y19.755 Z-0.8
X-83.94 Y19.435
Z-1.8 F314.
X-83.935 Y19.439 Z-1.852
X-83.919 Y19.451 Z-1.9
X-83.893 Y19.47 Z-1.941
X-83.86 Y19.495 Z-1.973
X-83.821 Y19.524 Z-1.993
X-83.78 Y19.555 Z-2.
X-83.62 Y19.675
G3 X-83.58 Y19.955 R0.2
X-86.22 Y17.975 R1.65 F628.
X-83.58 Y19.955 R1.65
X-83.86 Y19.995 R0.2 F1256.
G1 X-84.02 Y19.875
X-84.061 Y19.844 Z-1.993
X-84.1 Y19.815 Z-1.973
X-84.133 Y19.79 Z-1.941
X-84.159 Y19.771 Z-1.9
X-84.175 Y19.759 Z-1.852
X-84.18 Y19.755 Z-1.8
X-83.94 Y19.435
Z-2.35 F314.
X-83.935 Y19.439 Z-2.402
X-83.919 Y19.451 Z-2.45
X-83.893 Y19.47 Z-2.491
X-83.86 Y19.495 Z-2.523
X-83.821 Y19.524 Z-2.543
X-83.78 Y19.555 Z-2.55
X-83.62 Y19.675
G3 X-83.58 Y19.955 R0.2
X-86.22 Y17.975 R1.65 F628.
X-83.58 Y19.955 R1.65
X-83.86 Y19.995 R0.2 F1256.
G1 X-84.02 Y19.875
X-84.061 Y19.844 Z-2.543
X-84.1 Y19.815 Z-2.523
X-84.133 Y19.79 Z-2.491
X-84.159 Y19.771 Z-2.45
X-84.175 Y19.759 Z-2.402
X-84.18 Y19.755 Z-2.35
X-83.94 Y19.435
Z-2.9 F314.
X-83.935 Y19.439 Z-2.952
X-83.919 Y19.451 Z-3.
X-83.893 Y19.47 Z-3.041
X-83.86 Y19.495 Z-3.073
X-83.821 Y19.524 Z-3.093
X-83.78 Y19.555 Z-3.1
X-83.62 Y19.675
G3 X-83.58 Y19.955 R0.2
X-86.22 Y17.975 R1.65 F628.
X-83.58 Y19.955 R1.65
X-83.86 Y19.995 R0.2 F1256.
G1 X-84.02 Y19.875
X-84.061 Y19.844 Z-3.093
X-84.1 Y19.815 Z-3.073
X-84.133 Y19.79 Z-3.041
X-84.159 Y19.771 Z-3.
X-84.175 Y19.759 Z-2.952
X-84.18 Y19.755 Z-2.9
G0 Z5.
X-63.895 Y85.9
G1 Z2. F314.
Z-0.8
G19 G3 Y86.1 Z-1. R0.2
G1 Y86.3
G17 G3 X-64.095 Y86.5 R0.2
G1 X-74.6 F628.
X-75. F157.
Y-73.1 F628.
Y-73.5 F157.
X-55. F628.
G2 X-49. Y-79.5 R6.
G1 Y-88.5
G3 X-45. Y-92.5 R4.
G1 X55.
G3 X64. Y-83.5 R9.
G1 Y92.5
G3 X55. Y101.5 R9.
G1 X-48.6
X-49. F157.
Y92.5 F628.
G2 X-55. Y86.5 R6.
G1 X-64.095
G3 X-64.295 Y86.3 R0.2 F1256.
G1 Y86.1
G19 G2 Y85.9 Z-0.8 R0.2
G0 Z5.
X-3.972 Y-79.346
G1 Z1. F314.
Z-1.8
X-3.966 Z-1.852
X-3.946 Z-1.9
X-3.914 Y-79.347 Z-1.941
X-3.872 Y-79.348 Z-1.973
X-3.824 Y-79.35 Z-1.993
X-3.772 Y-79.351 Z-2.
X-3.573 Y-79.357
G17 G3 X-3.367 Y-79.163 R0.2
G2 X-0.583 Y-71.809 R12. F628.
X0.184 Y-71.45 R1.
G1 X17.072
G2 X17.84 Y-71.809 R1.
X-0.583 Y-87.191 R12.
X-3.367 Y-79.163 R12.
G3 X-3.561 Y-78.957 R0.2 F1256.
G1 X-3.761 Y-78.951
X-3.813 Y-78.95 Z-1.993
X-3.861 Y-78.949 Z-1.973
X-3.903 Y-78.947 Z-1.941
X-3.934 Y-78.946 Z-1.9
X-3.954 Z-1.852
X-3.961 Z-1.8
G0 Z5.
X27.647 Y-68.331
G1 Z1. F314.
Z-1.8
G18 G2 X27.847 Z-2. R0.2
G1 X28.047
G17 G3 X28.247 Y-68.131 R0.2
G1 Y-67.881 F628.
G2 X31.247 Y-64.881 R3.
G1 X60.
G2 X63. Y-67.881 R3.
G1 Y-77.381
G2 X62. Y-78.381 R1.
G1 X56.
G2 X55. Y-77.381 R1.
G1 Y-72.381
G3 X54. Y-71.381 R1.
G1 X51.814
G3 X50.814 Y-72.381 R1.
G1 Y-77.381
G2 X49.814 Y-78.381 R1.
G1 X43.814
G2 X42.814 Y-77.381 R1.
G1 Y-72.381
G3 X41.814 Y-71.381 R1.
G1 X30.577
G2 X29.819 Y-71.033 R1.
G1 X28.488 Y-69.485
G2 X28.247 Y-68.833 R1.
G1 Y-68.131
G3 X28.047 Y-67.931 R0.2 F1256.
G1 X27.847
G18 G3 X27.647 Z-1.8 R0.2
G1 X22.428 Y-71.781
Z-2.35 F314.
G19 G2 Y-71.981 Z-2.55 R0.2
G1 Y-72.181
G17 G3 X22.628 Y-72.381 R0.2
G1 X28.628 F628.
G2 X29.628 Y-73.381 R1.
G1 Y-78.381
G3 X30.628 Y-79.381 R1.
G1 X32.814
G3 X33.814 Y-78.381 R1.
G1 Y-73.381
G2 X34.814 Y-72.381 R1.
G1 X40.814
G2 X41.814 Y-73.381 R1.
G1 Y-78.381
G3 X42.814 Y-79.381 R1.
G1 X54.051
G2 X54.809 Y-79.729 R1.
G1 X56.14 Y-81.277
G2 X56.382 Y-81.929 R1.
G1 Y-82.881
G2 X53.382 Y-85.881 R3.
G1 X24.628
G2 X21.628 Y-82.881 R3.
G1 Y-73.381
G2 X22.628 Y-72.381 R1.
G3 X22.828 Y-72.181 R0.2 F1256.
G1 Y-71.981
G19 G3 Y-71.781 Z-2.35 R0.2
G0 Z5.
X14.472 Y92.52
G1 Z1. F314.
Z-1.8
X14.468 Y92.525 Z-1.852
X14.456 Y92.541 Z-1.9
X14.437 Y92.567 Z-1.941
X14.412 Y92.6 Z-1.973
X14.383 Y92.638 Z-1.993
X14.352 Y92.68 Z-2.
X14.232 Y92.84
G17 G3 X13.952 Y92.88 R0.2
G2 X12.752 Y92.48 R2. F628.
G1 X-5.248
G2 X-7.248 Y94.48 R2.
G1 Y98.5
G2 X-5.248 Y100.5 R2.
G1 X12.752
G2 X14.752 Y98.5 R2.
G1 Y94.48
G2 X13.952 Y92.88 R2.
G3 X13.912 Y92.6 R0.2 F1256.
G1 X14.032 Y92.44
X14.063 Y92.398 Z-1.993
X14.092 Y92.36 Z-1.973
X14.117 Y92.327 Z-1.941
X14.136 Y92.301 Z-1.9
X14.148 Y92.285 Z-1.852
X14.152 Y92.28 Z-1.8
X15.152 Y91.78
G18 G2 X15.352 Z-2. R0.2 F314.
G1 X15.552
G17 G3 X15.752 Y91.98 R0.2
G1 Y93.5 F628.
G2 X21.752 Y99.5 R6.
G1 X57.
G2 X63. Y93.5 R6.
G1 Y-57.881
G2 X57. Y-63.881 R6.
G1 X21.752
G2 X15.752 Y-57.881 R6.
G1 Y-48.939
G3 X11.752 Y-44.939 R4.
G1 X-12.531
G3 X-13.024 Y-45.355 R0.5
G2 X-29.872 Y-44.684 R8.5
G3 X-30.076 Y-44.323 R0.5
G1 X-42.683 Y-35.149
G3 X-43.283 Y-35.158 R0.5
G2 X-56.143 Y-24.739 R8.5
G3 X-56.093 Y-24.521 R0.5
G1 Y60.14
G3 X-56.143 Y60.358 R0.5
G2 X-43.283 Y70.777 R8.5
G3 X-42.683 Y70.768 R0.5
G1 X-30.076 Y79.942
G3 X-29.872 Y80.303 R0.5
G2 X-13.024 Y80.974 R8.5
G3 X-12.531 Y80.558 R0.5
G1 X11.752
G3 X15.752 Y84.558 R4.
G1 Y91.98
G3 X15.552 Y92.18 R0.2 F1256.
G1 X15.352
G18 G3 X15.152 Z-1.8 R0.2
G0 Z5.
X2.488 Y-49.801
G1 Z0. F314.
Z-2.35
Y-49.808 Z-2.402
Y-49.828 Z-2.45
X2.489 Y-49.86 Z-2.491
Y-49.901 Z-2.523
Y-49.949 Z-2.543
Y-50.001 Z-2.55
X2.49 Y-50.201
G17 G3 X2.691 Y-50.4 R0.2
G2 X11.964 Y-70.091 R12. F628.
X11.196 Y-70.45 R1.
G1 X-5.692
G2 X-6.459 Y-70.091 R1.
X2.691 Y-50.4 R12.
G3 X2.89 Y-50.199 R0.2 F1256.
G1 X2.889 Y-49.999
Y-49.947 Z-2.543
Y-49.899 Z-2.523
Y-49.858 Z-2.491
X2.888 Y-49.826 Z-2.45
Y-49.806 Z-2.402
Y-49.799 Z-2.35
G0 Z5.
X-5.048 Y82.859
G1 Z0. F314.
Z-2.35
G19 G3 Y83.059 Z-2.55 R0.2
G1 Y83.259
G17 G3 X-5.248 Y83.459 R0.2
G2 X-7.248 Y85.459 R2. F628.
G1 Y89.48
G2 X-5.248 Y91.48 R2.
G1 X12.775
G2 X14.752 Y89.48 R2.
G1 Y85.459
G2 X12.752 Y83.459 R2.
G1 X-5.248
G3 X-5.448 Y83.259 R0.2 F1256.
G1 Y83.059
G19 G2 Y82.859 Z-2.35 R0.2
G0 Z5.
X-14.498 Y100.9
G1 Z1. F314.
Z-1.8
G3 Y101.1 Z-2. R0.2
G1 Y101.3
G17 G3 X-14.698 Y101.5 R0.2
G1 X-48.6 F628.
X-49. F157.
Y92.5 F628.
G2 X-55. Y86.5 R6.
G1 X-74.6
X-75. F157.
Y-73.1 F628.
Y-73.5 F157.
X-55. F628.
G2 X-49. Y-79.5 R6.
G1 Y-88.5
G3 X-45. Y-92.5 R4.
G1 X55.
G3 X64. Y-83.5 R9.
G1 Y92.5
G3 X55. Y101.5 R9.
G1 X-14.698
G3 X-14.898 Y101.3 R0.2 F1256.
G1 Y101.1
G19 G2 Y100.9 Z-1.8 R0.2
G0 Z5.
X17.959 Y-71.104
G1 Z0. F314.
Z-2.35
X17.955 Y-71.109 Z-2.402
X17.942 Y-71.124 Z-2.45
X17.921 Y-71.148 Z-2.491
X17.894 Y-71.18 Z-2.523
X17.863 Y-71.216 Z-2.543
X17.829 Y-71.256 Z-2.55
X17.699 Y-71.408
G17 G3 X17.722 Y-71.69 R0.2
G2 X17.84 Y-71.809 R1. F628.
X-0.583 Y-87.191 R12.
Y-71.809 R12.
X0.184 Y-71.45 R1.
G1 X17.072
G2 X17.722 Y-71.69 R1.
G3 X18.004 Y-71.667 R0.2 F1256.
G1 X18.133 Y-71.515
X18.167 Y-71.476 Z-2.543
X18.198 Y-71.439 Z-2.523
X18.225 Y-71.408 Z-2.491
X18.246 Y-71.384 Z-2.45
X18.259 Y-71.369 Z-2.402
X18.263 Y-71.363 Z-2.35
X27.647 Y-68.331
G18 G2 X27.847 Z-2.55 R0.2 F314.
G1 X28.047
G17 G3 X28.247 Y-68.131 R0.2
G1 Y-67.881 F628.
G2 X31.247 Y-64.881 R3.
G1 X60.
G2 X63. Y-67.881 R3.
G1 Y-77.381
G2 X62. Y-78.381 R1.
G1 X56.
G2 X55. Y-77.381 R1.
G1 Y-72.381
G3 X54. Y-71.381 R1.
G1 X51.814
G3 X50.814 Y-72.381 R1.
G1 Y-77.381
G2 X49.814 Y-78.381 R1.
G1 X43.814
G2 X42.814 Y-77.381 R1.
G1 Y-72.381
G3 X41.814 Y-71.381 R1.
G1 X30.577
G2 X29.819 Y-71.033 R1.
G1 X28.488 Y-69.485
G2 X28.247 Y-68.833 R1.
G1 Y-68.131
G3 X28.047 Y-67.931 R0.2 F1256.
G1 X27.847
G18 G3 X27.647 Z-2.35 R0.2
G1 X22.428 Y-71.781
Z-2.9 F314.
G19 G2 Y-71.981 Z-3.1 R0.2
G1 Y-72.181
G17 G3 X22.628 Y-72.381 R0.2
G1 X28.628 F628.
G2 X29.628 Y-73.381 R1.
G1 Y-78.381
G3 X30.628 Y-79.381 R1.
G1 X32.814
G3 X33.814 Y-78.381 R1.
G1 Y-73.381
G2 X34.814 Y-72.381 R1.
G1 X40.814
G2 X41.814 Y-73.381 R1.
G1 Y-78.381
G3 X42.814 Y-79.381 R1.
G1 X54.051
G2 X54.809 Y-79.729 R1.
G1 X56.14 Y-81.277
G2 X56.382 Y-81.929 R1.
G1 Y-82.881
G2 X53.382 Y-85.881 R3.
G1 X24.628
G2 X21.628 Y-82.881 R3.
G1 Y-73.381
G2 X22.628 Y-72.381 R1.
G3 X22.828 Y-72.181 R0.2 F1256.
G1 Y-71.981
G19 G3 Y-71.781 Z-2.9 R0.2
G0 Z5.
X14.472 Y92.52
G1 Z0. F314.
Z-2.35
X14.468 Y92.525 Z-2.402
X14.456 Y92.541 Z-2.45
X14.437 Y92.567 Z-2.491
X14.412 Y92.6 Z-2.523
X14.383 Y92.638 Z-2.543
X14.352 Y92.68 Z-2.55
X14.232 Y92.84
G17 G3 X13.952 Y92.88 R0.2
G2 X12.752 Y92.48 R2. F628.
G1 X-5.248
G2 X-7.248 Y94.48 R2.
G1 Y98.5
G2 X-5.248 Y100.5 R2.
G1 X12.752
G2 X14.752 Y98.5 R2.
G1 Y94.48
G2 X13.952 Y92.88 R2.
G3 X13.912 Y92.6 R0.2 F1256.
G1 X14.032 Y92.44
X14.063 Y92.398 Z-2.543
X14.092 Y92.36 Z-2.523
X14.117 Y92.327 Z-2.491
X14.136 Y92.301 Z-2.45
X14.148 Y92.285 Z-2.402
X14.152 Y92.28 Z-2.35
X15.152 Y91.78
G18 G2 X15.352 Z-2.55 R0.2 F314.
G1 X15.552
G17 G3 X15.752 Y91.98 R0.2
G1 Y93.5 F628.
G2 X21.752 Y99.5 R6.
G1 X57.
G2 X63. Y93.5 R6.
G1 Y-57.881
G2 X57. Y-63.881 R6.
G1 X21.752
G2 X15.752 Y-57.881 R6.
G1 Y-48.939
G3 X11.752 Y-44.939 R4.
G1 X-12.531
G3 X-13.024 Y-45.355 R0.5
G2 X-29.872 Y-44.684 R8.5
G3 X-30.076 Y-44.323 R0.5
G1 X-42.683 Y-35.149
G3 X-43.283 Y-35.158 R0.5
G2 X-56.143 Y-24.739 R8.5
G3 X-56.093 Y-24.521 R0.5
G1 Y60.14
G3 X-56.143 Y60.358 R0.5
G2 X-43.283 Y70.777 R8.5
G3 X-42.683 Y70.768 R0.5
G1 X-30.076 Y79.942
G3 X-29.872 Y80.303 R0.5
G2 X-13.024 Y80.974 R8.5
G3 X-12.531 Y80.558 R0.5
G1 X11.752
G3 X15.752 Y84.558 R4.
G1 Y91.98
G3 X15.552 Y92.18 R0.2 F1256.
G1 X15.352
G18 G3 X15.152 Z-2.35 R0.2
G0 Z5.
X2.488 Y-49.801
G1 Z-0.55 F314.
Z-2.9
Y-49.808 Z-2.952
Y-49.828 Z-3.
X2.489 Y-49.86 Z-3.041
Y-49.901 Z-3.073
Y-49.949 Z-3.093
Y-50.001 Z-3.1
X2.49 Y-50.201
G17 G3 X2.691 Y-50.4 R0.2
G2 X11.964 Y-70.091 R12. F628.
X11.196 Y-70.45 R1.
G1 X-5.692
G2 X-6.459 Y-70.091 R1.
X2.691 Y-50.4 R12.
G3 X2.89 Y-50.199 R0.2 F1256.
G1 X2.889 Y-49.999
Y-49.947 Z-3.093
Y-49.899 Z-3.073
Y-49.858 Z-3.041
X2.888 Y-49.826 Z-3.
Y-49.806 Z-2.952
Y-49.799 Z-2.9
G0 Z5.
X-5.048 Y82.859
G1 Z-0.55 F314.
Z-2.9
G19 G3 Y83.059 Z-3.1 R0.2
G1 Y83.259
G17 G3 X-5.248 Y83.459 R0.2
G2 X-7.248 Y85.459 R2. F628.
G1 Y89.48
G2 X-5.248 Y91.48 R2.
G1 X12.775
G2 X14.752 Y89.48 R2.
G1 Y85.459
G2 X12.752 Y83.459 R2.
G1 X-5.248
G3 X-5.448 Y83.259 R0.2 F1256.
G1 Y83.059
G19 G2 Y82.859 Z-2.9 R0.2
G0 Z5.
X-14.498 Y100.9
G1 Z0. F314.
Z-2.35
G3 Y101.1 Z-2.55 R0.2
G1 Y101.3
G17 G3 X-14.698 Y101.5 R0.2
G1 X-48.6 F628.
X-49. F157.
Y92.5 F628.
G2 X-55. Y86.5 R6.
G1 X-74.6
X-75. F157.
Y-73.1 F628.
Y-73.5 F157.
X-55. F628.
G2 X-49. Y-79.5 R6.
G1 Y-88.5
G3 X-45. Y-92.5 R4.
G1 X55.
G3 X64. Y-83.5 R9.
G1 Y92.5
G3 X55. Y101.5 R9.
G1 X-14.698
G3 X-14.898 Y101.3 R0.2 F1256.
G1 Y101.1
G19 G2 Y100.9 Z-2.35 R0.2
G0 Z5.
X17.959 Y-71.104
G1 Z-0.55 F314.
Z-2.9
X17.955 Y-71.109 Z-2.952
X17.942 Y-71.124 Z-3.
X17.921 Y-71.148 Z-3.041
X17.894 Y-71.18 Z-3.073
X17.863 Y-71.216 Z-3.093
X17.829 Y-71.256 Z-3.1
X17.699 Y-71.408
G17 G3 X17.722 Y-71.69 R0.2
G2 X17.84 Y-71.809 R1. F628.
X-0.583 Y-87.191 R12.
Y-71.809 R12.
X0.184 Y-71.45 R1.
G1 X17.072
G2 X17.722 Y-71.69 R1.
G3 X18.004 Y-71.667 R0.2 F1256.
G1 X18.133 Y-71.515
X18.167 Y-71.476 Z-3.093
X18.198 Y-71.439 Z-3.073
X18.225 Y-71.408 Z-3.041
X18.246 Y-71.384 Z-3.
X18.259 Y-71.369 Z-2.952
X18.263 Y-71.363 Z-2.9
X27.647 Y-68.331
G18 G2 X27.847 Z-3.1 R0.2 F314.
G1 X28.047
G17 G3 X28.247 Y-68.131 R0.2
G1 Y-67.881 F628.
G2 X31.247 Y-64.881 R3.
G1 X60.
G2 X63. Y-67.881 R3.
G1 Y-77.381
G2 X62. Y-78.381 R1.
G1 X56.
G2 X55. Y-77.381 R1.
G1 Y-72.381
G3 X54. Y-71.381 R1.
G1 X51.814
G3 X50.814 Y-72.381 R1.
G1 Y-77.381
G2 X49.814 Y-78.381 R1.
G1 X43.814
G2 X42.814 Y-77.381 R1.
G1 Y-72.381
G3 X41.814 Y-71.381 R1.
G1 X30.577
G2 X29.819 Y-71.033 R1.
G1 X28.488 Y-69.485
G2 X28.247 Y-68.833 R1.
G1 Y-68.131
G3 X28.047 Y-67.931 R0.2 F1256.
G1 X27.847
G18 G3 X27.647 Z-2.9 R0.2
G0 Z5.
X14.472 Y92.52
G1 Z-0.55 F314.
Z-2.9
X14.468 Y92.525 Z-2.952
X14.456 Y92.541 Z-3.
X14.437 Y92.567 Z-3.041
X14.412 Y92.6 Z-3.073
X14.383 Y92.638 Z-3.093
X14.352 Y92.68 Z-3.1
X14.232 Y92.84
G17 G3 X13.952 Y92.88 R0.2
G2 X12.752 Y92.48 R2. F628.
G1 X-5.248
G2 X-7.248 Y94.48 R2.
G1 Y98.5
G2 X-5.248 Y100.5 R2.
G1 X12.752
G2 X14.752 Y98.5 R2.
G1 Y94.48
G2 X13.952 Y92.88 R2.
G3 X13.912 Y92.6 R0.2 F1256.
G1 X14.032 Y92.44
X14.063 Y92.398 Z-3.093
X14.092 Y92.36 Z-3.073
X14.117 Y92.327 Z-3.041
X14.136 Y92.301 Z-3.
X14.148 Y92.285 Z-2.952
X14.152 Y92.28 Z-2.9
X15.152 Y91.78
G18 G2 X15.352 Z-3.1 R0.2 F314.
G1 X15.552
G17 G3 X15.752 Y91.98 R0.2
G1 Y93.5 F628.
G2 X21.752 Y99.5 R6.
G1 X57.
G2 X63. Y93.5 R6.
G1 Y-57.881
G2 X57. Y-63.881 R6.
G1 X21.752
G2 X15.752 Y-57.881 R6.
G1 Y-48.939
G3 X11.752 Y-44.939 R4.
G1 X-12.531
G3 X-13.024 Y-45.355 R0.5
G2 X-29.872 Y-44.684 R8.5
G3 X-30.076 Y-44.323 R0.5
G1 X-42.683 Y-35.149
G3 X-43.283 Y-35.158 R0.5
G2 X-56.143 Y-24.739 R8.5
G3 X-56.093 Y-24.521 R0.5
G1 Y60.14
G3 X-56.143 Y60.358 R0.5
G2 X-43.283 Y70.777 R8.5
G3 X-42.683 Y70.768 R0.5
G1 X-30.076 Y79.942
G3 X-29.872 Y80.303 R0.5
G2 X-13.024 Y80.974 R8.5
G3 X-12.531 Y80.558 R0.5
G1 X11.752
G3 X15.752 Y84.558 R4.
G1 Y91.98
G3 X15.552 Y92.18 R0.2 F1256.
G1 X15.352
G18 G3 X15.152 Z-2.9 R0.2
G1 X16.771 Y100.9
G19 G3 Y101.1 Z-3.1 R0.2 F314.
G1 Y101.3
G17 G3 X16.571 Y101.5 R0.2
G1 X-48.6 F628.
X-49. F157.
Y92.5 F628.
G2 X-55. Y86.5 R6.
G1 X-74.6
X-75. F157.
Y-73.1 F628.
Y-73.5 F157.
X-55. F628.
G2 X-49. Y-79.5 R6.
G1 Y-88.5
G3 X-45. Y-92.5 R4.
G1 X55.
G3 X64. Y-83.5 R9.
G1 Y92.5
G3 X55. Y101.5 R9.
G1 X16.571
G3 X16.371 Y101.3 R0.2 F1256.
G1 Y101.1
G19 G2 Y100.9 Z-2.9 R0.2
G0 Z5.
X-0.2 Y120.1
G1 Z2. F314.
Z-0.8
G2 Y119.9 Z-1. R0.2
G1 Y119.7
G17 G3 X0. Y119.5 R0.2
G1 X92. F628.
G2 X96. Y115.5 R4.
G1 Y-108.5
G2 X85. Y-119.5 R11.
G1 X-94.
G2 X-96. Y-117.5 R2.
G1 Y118.5
G2 X-95. Y119.5 R1.
G1 X0.
G3 X0.2 Y119.7 R0.2 F1256.
G1 Y119.9
G19 G3 Y120.1 Z-0.8 R0.2
G1 X-0.2
Z-1.8 F314.
G2 Y119.9 Z-2. R0.2
G1 Y119.7
G17 G3 X0. Y119.5 R0.2
G1 X92. F628.
G2 X96. Y115.5 R4.
G1 Y-108.5
G2 X85. Y-119.5 R11.
G1 X-94.
G2 X-96. Y-117.5 R2.
G1 Y118.5
G2 X-95. Y119.5 R1.
G1 X0.
G3 X0.2 Y119.7 R0.2 F1256.
G1 Y119.9
G19 G3 Y120.1 Z-1.8 R0.2
G1 X-0.2
Z-2.35 F314.
G2 Y119.9 Z-2.55 R0.2
G1 Y119.7
G17 G3 X0. Y119.5 R0.2
G1 X92. F628.
G2 X96. Y115.5 R4.
G1 Y-108.5
G2 X85. Y-119.5 R11.
G1 X-94.
G2 X-96. Y-117.5 R2.
G1 Y118.5
G2 X-95. Y119.5 R1.
G1 X0.
G3 X0.2 Y119.7 R0.2 F1256.
G1 Y119.9
G19 G3 Y120.1 Z-2.35 R0.2
G1 X-0.2
Z-2.9 F314.
G2 Y119.9 Z-3.1 R0.2
G1 Y119.7
G17 G3 X0. Y119.5 R0.2
G1 X92. F628.
G2 X96. Y115.5 R4.
G1 Y-108.5
G2 X85. Y-119.5 R11.
G1 X-94.
G2 X-96. Y-117.5 R2.
G1 Y118.5
G2 X-95. Y119.5 R1.
G1 X0.
G3 X0.2 Y119.7 R0.2 F1256.
G1 Y119.9
G19 G3 Y120.1 Z-2.9 R0.2
G0 Z15.
G17

M9
G53 G0
M30
